static/assets/images/networks/manta-pacific-mono-1.svg

<svg width="256" height="256" viewBox="0 0 256 256" fill="none" xmlns="http://www.w3.org/2000/svg">
<path fill-rule="evenodd" clip-rule="evenodd" d="M59.5126 219.802C31.5661 198.917 13.4737 165.573 13.4737 128C13.4737 64.7491 64.7507 13.4737 127.999 13.4737C180.202 13.4737 237.207 44.6707 250.993 92.4483C235.592 39.0575 186.364 0 128.001 0C57.3096 0 0 57.309 0 128C0 198.694 57.3096 256 127.999 256C198.693 256 256 198.694 256 128V121.263H248.966L248.028 121.25C242.871 121.155 237.718 120.886 232.578 120.444C222.974 119.609 212.021 117.981 204.561 115.001C192.561 110.207 185.785 103.852 178.042 96.4177L177.595 95.9865C169.839 88.5383 161.124 80.1684 146.024 73.0624C131.15 66.0615 114.7 67.1852 102.611 69.6724C97.4728 70.7365 92.4175 72.1666 87.4833 73.9517C85.6143 74.628 84.1169 75.2317 83.0666 75.6736C76.9829 78.2336 71.0795 81.2652 65.1089 84.0758C65.1089 84.0758 76.824 87.2879 82.6142 89.0826C84.1658 89.5795 85.6983 90.1342 87.2086 90.7453C91.0543 92.29 94.7504 94.1842 98.2504 96.4042C104.498 100.419 109.68 105.475 111.805 111.681C98.5413 113.424 86.0991 119.247 76.7943 124.721C72.0836 127.497 67.5355 130.54 63.1725 133.837C61.527 135.084 60.2209 136.127 59.3214 136.871C58.5619 137.496 46.5829 148.054 46.5829 148.054C46.5829 148.054 62.036 149.698 69.663 151.234C74.7341 152.258 81.5719 153.902 88.706 156.389C95.8724 158.89 103.114 162.167 109.12 166.36C115.142 170.563 119.55 175.419 121.724 180.981C128.063 197.177 121.845 212.952 109.36 221.825C97.0251 230.594 78.2675 232.68 59.5126 219.802ZM103.187 239.832C108.175 238.214 112.888 235.846 117.164 232.809C134.155 220.731 143.094 198.613 134.274 176.071C130.808 167.217 124.185 160.442 116.833 155.311C109.467 150.17 100.989 146.405 93.147 143.67C88.3832 142.019 83.5414 140.603 78.6391 139.426C80.2759 138.356 81.9371 137.325 83.6214 136.332C93.9926 130.234 107.052 124.632 119.575 124.632C138.453 124.632 152.511 130.425 165.934 136.639C167.154 137.205 168.379 137.779 169.61 138.356C181.605 143.985 194.201 149.895 208.838 149.895C223.031 149.895 234.089 145.88 241.708 141.73C234.926 198.51 186.606 242.526 127.999 242.526C119.48 242.526 111.177 241.597 103.187 239.832ZM227.151 133.457C222.107 135.179 215.991 136.421 208.841 136.421C197.36 136.421 187.495 131.821 174.969 125.982L171.598 124.413C159.058 118.606 144.551 112.451 125.664 111.336C123.132 98.8322 113.652 90.2899 105.538 85.0702C104.65 84.4996 103.749 83.9489 102.837 83.4183C103.645 83.2296 104.48 83.041 105.325 82.8685C116.232 80.6238 129.259 80.0633 140.287 85.2534C153.379 91.4136 160.763 98.5061 168.447 105.884L168.711 106.138C176.615 113.729 184.977 121.686 199.563 127.512C207.669 130.749 218.156 132.489 227.151 133.457Z" fill="black"/>
</svg>

<svg xmlns="http://www.w3.org/2000/svg" fill="none" viewBox="0 0 256 256"><path fill="#000" fill-rule="evenodd" d="M59.513 219.802c-27.947-20.885-46.04-54.229-46.04-91.802C13.474 64.75 64.752 13.474 128 13.474c52.203 0 109.208 31.197 122.994 78.974C235.592 39.058 186.364 0 128.001 0 57.31 0 0 57.309 0 128c0 70.694 57.31 128 127.999 128C198.693 256 256 198.694 256 128v-6.737h-7.034l-.938-.013a230 230 0 0 1-15.45-.806c-9.604-.835-20.557-2.463-28.017-5.443-12-4.794-18.776-11.149-26.519-18.583l-.447-.431c-7.756-7.449-16.471-15.819-31.571-22.925-14.874-7-31.324-5.877-43.413-3.39a110 110 0 0 0-15.128 4.28 93 93 0 0 0-4.416 1.722c-6.084 2.56-11.987 5.591-17.958 8.402 0 0 11.715 3.212 17.505 5.007a66 66 0 0 1 4.595 1.662 68 68 0 0 1 11.041 5.66c6.248 4.014 11.43 9.07 13.555 15.276-13.264 1.743-25.706 7.566-35.01 13.04a143 143 0 0 0-13.623 9.116 118 118 0 0 0-3.85 3.034c-.76.625-12.74 11.183-12.74 11.183s15.454 1.644 23.081 3.18c5.071 1.024 11.909 2.668 19.043 5.155 7.166 2.501 14.408 5.778 20.414 9.971 6.022 4.203 10.43 9.059 12.604 14.621 6.339 16.196.121 31.971-12.364 40.844-12.335 8.769-31.092 10.855-49.847-2.023m43.674 20.03a51.7 51.7 0 0 0 13.977-7.023c16.991-12.078 25.93-34.196 17.11-56.738-3.466-8.854-10.089-15.629-17.441-20.76-7.366-5.141-15.844-8.906-23.686-11.641a154 154 0 0 0-14.508-4.244 127 127 0 0 1 4.982-3.094c10.372-6.098 23.431-11.7 35.954-11.7 18.878 0 32.936 5.793 46.359 12.007q1.83.85 3.676 1.717c11.995 5.629 24.591 11.539 39.228 11.539 14.193 0 25.251-4.015 32.87-8.165-6.782 56.78-55.102 100.796-113.709 100.796-8.519 0-16.822-.929-24.812-2.694m123.964-106.375c-5.044 1.722-11.16 2.964-18.31 2.964-11.481 0-21.346-4.6-33.872-10.439l-3.371-1.569c-12.54-5.807-27.047-11.962-45.934-13.077-2.532-12.504-12.012-21.046-20.126-26.266a72 72 0 0 0-2.701-1.652 91 91 0 0 1 2.488-.55c10.907-2.244 23.934-2.805 34.962 2.385 13.092 6.16 20.476 13.253 28.16 20.631l.264.254c7.904 7.591 16.266 15.548 30.852 21.374 8.106 3.237 18.593 4.977 27.588 5.945" clip-rule="evenodd"/></svg>
